src/client/web-contents/img/common/badge/badge_member_02.svg

<?xml version="1.0" encoding="UTF-8" standalone="no"?>
<svg width="104px" height="36px" viewBox="0 0 104 36" version="1.1" xmlns="http://www.w3.org/2000/svg" xmlns:xlink="http://www.w3.org/1999/xlink">
    <!-- Generator: Sketch 50.2 (55047) - http://www.bohemiancoding.com/sketch -->
    <title>graphic_badge_member_02</title>
    <desc>Created with Sketch.</desc>
    <defs></defs>
    <g id="Icon_Badge_Graphic" stroke="none" stroke-width="1" fill="none" fill-rule="evenodd">
        <g id="##Element/Badge/Member02">
            <rect id="Rectangle-2" fill="#F3981F" x="0" y="0" width="104" height="36" rx="18"></rect>
            <path d="M30.0599992,24.98 C28.9666604,24.98 27.973337,24.7966685 27.0799992,24.43 C26.1866614,24.0633315 25.4233357,23.5566699 24.7899992,22.91 C24.1566627,22.2633301 23.6666676,21.5033377 23.3199992,20.63 C22.9733308,19.7566623 22.7999992,18.8066718 22.7999992,17.78 L22.7999992,17.74 C22.7999992,16.7666618 22.9766641,15.8400044 23.3299992,14.96 C23.6833343,14.0799956 24.179996,13.3100033 24.8199992,12.65 C25.4600024,11.9899967 26.2233281,11.4666686 27.1099992,11.08 C27.9966703,10.6933314 28.9666606,10.5 30.0199992,10.5 C30.6333356,10.5 31.1899967,10.5433329 31.6899992,10.63 C32.1900017,10.7166671 32.6533304,10.8399992 33.0799992,11 C33.506668,11.1600008 33.9099973,11.3566655 34.2899992,11.59 C34.6700011,11.8233345 35.0399974,12.0933318 35.3999992,12.4 L33.8399992,14.26 C33.5733312,14.0333322 33.3000006,13.8266676 33.0199992,13.64 C32.7399978,13.4533324 32.4466674,13.2966673 32.1399992,13.17 C31.833331,13.0433327 31.4966677,12.9433337 31.1299992,12.87 C30.7633307,12.7966663 30.3600014,12.76 29.9199992,12.76 C29.279996,12.76 28.6833353,12.893332 28.1299992,13.16 C27.5766631,13.426668 27.0966679,13.7833311 26.6899992,14.23 C26.2833305,14.6766689 25.9633337,15.199997 25.7299992,15.8 C25.4966647,16.400003 25.3799992,17.03333 25.3799992,17.7 L25.3799992,17.74 C25.3799992,18.4600036 25.4933314,19.1266636 25.7199992,19.74 C25.946667,20.3533364 26.2699971,20.8799978 26.6899992,21.32 C27.1100013,21.7600022 27.6099963,22.1066654 28.1899992,22.36 C28.7700021,22.6133346 29.4199956,22.74 30.1399992,22.74 C30.8066692,22.74 31.4299963,22.6433343 32.0099992,22.45 C32.5900021,22.2566657 33.0933304,22.0000016 33.5199992,21.68 L33.5199992,19.06 L29.9399992,19.06 L29.9399992,16.92 L35.8999992,16.92 L35.8999992,22.8 C35.5533308,23.0933348 35.1700013,23.373332 34.7499992,23.64 C34.3299971,23.906668 33.8766683,24.139999 33.3899992,24.34 C32.9033301,24.540001 32.380002,24.6966661 31.8199992,24.81 C31.2599964,24.9233339 30.6733356,24.98 30.0599992,24.98 Z M45.8199992,22.72 C46.513336,22.72 47.1499963,22.5900013 47.7299992,22.33 C48.3100021,22.0699987 48.8066638,21.7166689 49.2199992,21.27 C49.6333346,20.8233311 49.9566647,20.300003 50.1899992,19.7 C50.4233337,19.099997 50.5399992,18.4600034 50.5399992,17.78 L50.5399992,17.74 C50.5399992,17.0599966 50.4233337,16.4166697 50.1899992,15.81 C49.9566647,15.2033303 49.6300013,14.6766689 49.2099992,14.23 C48.7899971,13.7833311 48.2866688,13.426668 47.6999992,13.16 C47.1133296,12.893332 46.473336,12.76 45.7799992,12.76 C45.0866624,12.76 44.4500021,12.8899987 43.8699992,13.15 C43.2899963,13.4100013 42.7933346,13.7633311 42.3799992,14.21 C41.9666638,14.6566689 41.6433337,15.179997 41.4099992,15.78 C41.1766647,16.380003 41.0599992,17.0199966 41.0599992,17.7 L41.0599992,17.74 C41.0599992,18.4200034 41.1766647,19.0633303 41.4099992,19.67 C41.6433337,20.2766697 41.9699971,20.8033311 42.3899992,21.25 C42.8100013,21.6966689 43.3133296,22.053332 43.8999992,22.32 C44.4866688,22.586668 45.1266624,22.72 45.8199992,22.72 Z M45.7799992,24.98 C44.6999938,24.98 43.713337,24.7900019 42.8199992,24.41 C41.9266614,24.0299981 41.1600024,23.5133366 40.5199992,22.86 C39.879996,22.2066634 39.380001,21.4433377 39.0199992,20.57 C38.6599974,19.6966623 38.4799992,18.7666716 38.4799992,17.78 L38.4799992,17.74 C38.4799992,16.7533284 38.6599974,15.8233377 39.0199992,14.95 C39.380001,14.0766623 39.8866626,13.3100033 40.5399992,12.65 C41.1933358,11.9899967 41.9666614,11.4666686 42.8599992,11.08 C43.753337,10.6933314 44.7399938,10.5 45.8199992,10.5 C46.9000046,10.5 47.8866614,10.6899981 48.7799992,11.07 C49.673337,11.4500019 50.439996,11.9666634 51.0799992,12.62 C51.7200024,13.2733366 52.2199974,14.0366623 52.5799992,14.91 C52.940001,15.7833377 53.1199992,16.7133284 53.1199992,17.7 L53.1199992,17.74 C53.1199992,18.7266716 52.940001,19.6566623 52.5799992,20.53 C52.2199974,21.4033377 51.7133358,22.1699967 51.0599992,22.83 C50.4066626,23.4900033 49.633337,24.0133314 48.7399992,24.4 C47.8466614,24.7866686 46.8600046,24.98 45.7799992,24.98 Z M56.0999992,10.74 L58.5599992,10.74 L58.5599992,22.5 L65.9199992,22.5 L65.9199992,24.74 L56.0999992,24.74 L56.0999992,10.74 Z M73.6999992,22.5 C74.4333362,22.5 75.0999962,22.3833345 75.6999992,22.15 C76.3000022,21.9166655 76.8099971,21.5900021 77.2299992,21.17 C77.6500013,20.7499979 77.9766647,20.2500029 78.2099992,19.67 C78.4433337,19.0899971 78.5599992,18.4600034 78.5599992,17.78 L78.5599992,17.74 C78.5599992,17.0599966 78.4433337,16.4266696 78.2099992,15.84 C77.9766647,15.2533304 77.6500013,14.7500021 77.2299992,14.33 C76.8099971,13.9099979 76.3000022,13.5800012 75.6999992,13.34 C75.0999962,13.0999988 74.4333362,12.98 73.6999992,12.98 L70.9399992,12.98 L70.9399992,22.5 L73.6999992,22.5 Z M68.4799992,10.74 L73.6999992,10.74 C74.793338,10.74 75.7966613,10.9166649 76.7099992,11.27 C77.6233371,11.6233351 78.4099959,12.1133302 79.0699992,12.74 C79.7300025,13.3666698 80.2399974,14.1033291 80.5999992,14.95 C80.960001,15.7966709 81.1399992,16.7133284 81.1399992,17.7 L81.1399992,17.74 C81.1399992,18.7266716 80.960001,19.6466624 80.5999992,20.5 C80.2399974,21.3533376 79.7300025,22.0933302 79.0699992,22.72 C78.4099959,23.3466698 77.6233371,23.8399982 76.7099992,24.2 C75.7966613,24.5600018 74.793338,24.74 73.6999992,24.74 L68.4799992,24.74 L68.4799992,10.74 Z" id="GOLD" fill="#FFFFFF"></path>
        </g>
    </g>
</svg>

<?xml version="1.0" encoding="utf-8"?>
<!-- Generator: Adobe Illustrator 16.0.0, SVG Export Plug-In . SVG Version: 6.00 Build 0)  -->
<!DOCTYPE svg PUBLIC "-//W3C//DTD SVG 1.1//EN" "http://www.w3.org/Graphics/SVG/1.1/DTD/svg11.dtd">
<svg version="1.1" id="Layer_1" xmlns="http://www.w3.org/2000/svg" xmlns:xlink="http://www.w3.org/1999/xlink" x="0px" y="0px"
	 width="104px" height="36px" viewBox="0 0 104 36" enable-background="new 0 0 104 36" xml:space="preserve">
<title>graphic_badge_member_02</title>
<desc>Created with Sketch.</desc>
<g id="Icon_Badge_Graphic">
	<g id="_x23__x23_Element_x2F_Badge_x2F_Member02">
		<path id="Rectangle-2" fill="#DC7D00" d="M18,0h68c9.941,0,18,8.059,18,18l0,0c0,9.941-8.059,18-18,18H18C8.059,36,0,27.941,0,18
			l0,0C0,8.059,8.059,0,18,0z"/>
		<path id="GOLD" fill="#FFFFFF" d="M30.06,24.98c-1.093,0-2.087-0.184-2.98-0.551c-0.894-0.366-1.657-0.873-2.29-1.52
			s-1.124-1.406-1.47-2.28c-0.347-0.873-0.52-1.823-0.52-2.85v-0.04c0-0.974,0.177-1.9,0.53-2.78c0.353-0.88,0.85-1.65,1.49-2.31
			c0.64-0.66,1.403-1.183,2.29-1.57s1.857-0.58,2.91-0.58c0.613,0,1.17,0.043,1.67,0.13c0.5,0.087,0.963,0.21,1.39,0.37
			s0.83,0.356,1.21,0.59s0.75,0.503,1.11,0.81l-1.56,1.86c-0.267-0.227-0.54-0.433-0.82-0.62c-0.28-0.187-0.573-0.343-0.88-0.47
			c-0.307-0.126-0.644-0.227-1.01-0.3s-0.77-0.11-1.21-0.11c-0.64,0-1.237,0.134-1.79,0.4s-1.033,0.623-1.44,1.07
			s-0.727,0.97-0.96,1.57c-0.233,0.6-0.35,1.233-0.35,1.9v0.04c0,0.72,0.113,1.387,0.34,2c0.227,0.613,0.55,1.14,0.97,1.58
			c0.42,0.439,0.92,0.786,1.5,1.039c0.58,0.254,1.23,0.381,1.95,0.381c0.667,0,1.29-0.097,1.87-0.29
			c0.58-0.193,1.083-0.45,1.51-0.771v-2.619h-3.58V16.92h5.96v5.88c-0.347,0.294-0.73,0.573-1.15,0.841
			c-0.42,0.266-0.874,0.5-1.36,0.699c-0.487,0.2-1.01,0.357-1.57,0.471C31.26,24.924,30.673,24.98,30.06,24.98z M45.82,22.721
			c0.693,0,1.33-0.131,1.91-0.391s1.077-0.613,1.49-1.061c0.413-0.446,0.736-0.97,0.97-1.569c0.233-0.601,0.35-1.24,0.35-1.92v-0.04
			c0-0.68-0.117-1.324-0.35-1.93c-0.233-0.607-0.56-1.133-0.98-1.58s-0.923-0.803-1.51-1.07c-0.587-0.267-1.227-0.4-1.92-0.4
			s-1.33,0.13-1.91,0.39c-0.58,0.26-1.077,0.613-1.49,1.06c-0.413,0.447-0.736,0.97-0.97,1.57c-0.233,0.6-0.35,1.24-0.35,1.92v0.04
			c0,0.68,0.117,1.323,0.35,1.93c0.233,0.607,0.56,1.133,0.98,1.58s0.923,0.803,1.51,1.07C44.487,22.587,45.126,22.721,45.82,22.721
			z M45.78,24.98c-1.08,0-2.066-0.19-2.96-0.57c-0.893-0.381-1.66-0.896-2.3-1.551c-0.64-0.652-1.14-1.416-1.5-2.289
			s-0.54-1.804-0.54-2.791v-0.04c0-0.987,0.18-1.917,0.54-2.79c0.36-0.874,0.867-1.64,1.52-2.3c0.653-0.66,1.427-1.183,2.32-1.57
			c0.894-0.387,1.88-0.58,2.96-0.58s2.067,0.19,2.96,0.57c0.894,0.38,1.66,0.897,2.3,1.55s1.14,1.417,1.5,2.29
			c0.359,0.873,0.54,1.803,0.54,2.79v0.04c0,0.986-0.181,1.916-0.54,2.789c-0.36,0.874-0.867,1.641-1.52,2.301
			s-1.427,1.184-2.32,1.57C47.847,24.787,46.86,24.98,45.78,24.98z M56.1,10.74h2.461V22.5h7.359v2.24H56.1V10.74z M73.7,22.5
			c0.733,0,1.399-0.117,2-0.35c0.6-0.234,1.11-0.561,1.53-0.98s0.746-0.92,0.979-1.5s0.351-1.21,0.351-1.89v-0.04
			c0-0.68-0.117-1.313-0.351-1.9c-0.233-0.586-0.56-1.09-0.979-1.51s-0.931-0.75-1.53-0.99c-0.601-0.24-1.267-0.36-2-0.36h-2.761
			v9.52H73.7z M68.48,10.74h5.22c1.093,0,2.097,0.176,3.01,0.53s1.7,0.843,2.36,1.47c0.66,0.626,1.17,1.363,1.529,2.21
			c0.36,0.847,0.541,1.763,0.541,2.75v0.04c0,0.986-0.181,1.906-0.541,2.76c-0.359,0.854-0.869,1.594-1.529,2.221
			c-0.66,0.626-1.447,1.119-2.36,1.479s-1.917,0.54-3.01,0.54h-5.22V10.74z"/>
	</g>
</g>
</svg>
